X:273
T:Whiskey Before Breakfast
C:Trad. Arr. Matthew Fox
N:TablEdited by Matthew Fox
L:1/8
Q:1/4=200
M:4/4
K:D
z8 | DE FG A2 [d2A2F2D2] | AB AG FD EF | GA dA FA dA | [ED]E EE EF EC | DE FG A2 [d2A2F2D2] | 
AB AG FD EF | GA BG FG AF | ED CE D2 [d2A2F2D2] | DE FG AG A2 | AB AG FD EF | 
GA BG FG AF | ED EF G(3F/G/F/ EC | DE FG A2 [d2A2F2D2] | AB AG FD EF | GA Bc dB AG | 
FD EC D2 [d2A2F2D2] | A2 Bc d2 fg | af ge fd ec | d^d ef ge Be | ag fe cA Bc | 
df ff ce fe | Bd fd Ad fd | GA dA FA dA | eA Ge [d4A4F4] | A2 Bc d2 fg | af ge fd ef | 
ge Be gf g^g | ag fe cA Bc | de fd ce dc | Bc dB GA AF | GA Bc dB AG | FD EC D2 [d2A2F2D2] | 
 
